X:1
T:Title
%%score { ( 1 3 ) | 2 }
L:1/8
Q:1/4=112
M:4/4
K:Bb
V:1 treble nm="Grand Piano"
V:3 treble 
V:2 bass 
V:1
 [DB]2 [DB]2 [DG]>[DA] [DB]>[DG] | [EA]4 F2 F>F | [DB]2 [FB]2 c2 c2 | d6 FF | F2 d2 [^Fd]2 [Fc]2 | %5
w: W.~Stillman~Martin * * * * *|||||
 [Ac]4 B2 A>G | A2 B>c A2 [=EG]2 | F6 FF | e2 c2 G2 A2 | c4 z4 | c2 =B2 c2 e2 | d6 G>G | %12
w: |||||||
 G2 [G=B]2 [Gc]2 [Gd]2 | [Ge]4 [EG]2 [E^F]>[EG] | [=Ec]2 [EG]2 [Ec]2 [Ed]2 | z2 f>f f2 f2 | %16
w: ||||
 [Fd]2 [Fd]>[Fd] [Ge]2 [Fd]2 | [Ec]2 [Ge]2 [EG]4 | c2 =B>c d2 c2 | [DF]6 z2 | %20
w: ||||
 [Fd]2 [Fd]>[Fd] [F=e]2 [Ff]2 | [Ff]2 c2 B2 A2 | G2 AB A2 [=EG]2 | F2 ^F2 G2 A2 | %24
w: ||||
 [DB]2 [DB]2 [DG]>[DA] [DB]>[DG] | [EA]4 F2 F>F | [DB]2 [FB]2 c2 c2 | d6 z2 | f2 d>c B2 cd | %29
w: |||||
[M:9/8] [Gc]3- [Gc] [EG]2- [EG][Ge][Gc] |[M:4/4] [Bf]2 dB d2 c2 | [DB]6 z2 |] %32
w: |||
V:2
 [B,,F,]2 [B,,F,]2 [B,,F,]>[B,,F,] [B,,F,]>[B,,F,] | [C,F,]4 [F,A,E]2 [F,A,E]>[F,A,E] | %2
 [B,,B,]2 [D,B,]2[K:treble] [F,A,F]2 [F,A,F]2 | [B,F]6[K:bass] [F,A,E][F,A,E] | %4
 [B,D]2 [B,F]2[K:bass] [D,A,]2 [D,D]2 | [G,D]4 [G,DG]2 [A,DF]>[B,DF] | %6
 [CF]2 [CF]>[CF] [CF]2[K:bass] [C,B,]2 | [F,A,]6 [F,A,][F,A,] | %8
 [F,A,F]2 [F,A,E]2 [F,B,E]2 [F,CE]2 | [B,D]4 [B,,B,]2 [B,,B,]>[B,,B,] | %10
 [F,A,E]2 [F,_A,E]2 [F,=A,E]2[K:treble] [A,CF]2 | [B,F]6 [G,=B,F]>[G,B,F] | %12
 [G,=B,F]2[K:bass] [F,D]2 [E,C]2 [D,B,]2 | [C,C]4 [C,C]2 [C,C]>[C,C] | %14
 [C,B,]2 [C,B,]2 [C,B,]2 [C,B,]2 | [F,A,E]6 z2 | [B,,B,]2 [B,,B,]>[B,,B,] [G,=B,]2 [G,B,]2 | %17
 [C,C]2 [C,C]2 [C,C]4 | [F,A,E]2 [F,_A,E]>[F,=A,E] [F,G,E]2 [F,A,E]2 | [B,,B,]6 z2 | %20
 [B,,B,]2 [B,,B,]>[B,,B,] [=B,,_A,]2 [B,,A,]2 | [C,A,]2[K:treble] [A,CF]2 [G,C=E]2 [F,CF]2 | %22
 [B,DF]2 [A,DF][G,_DF] [CF]2[K:bass] [C,B,]2 | [F,A,]2 ^F,2 G,2 A,2 | %24
 [B,,F,]2 [B,,F,]2 [B,,F,]>[B,,F,] [B,,F,]>[B,,F,] | [C,F,]4 [F,A,E]2 [F,A,E]>[F,A,E] | %26
 [B,,B,]2 [D,B,]2[K:treble] [F,A,F]2 [F,A,F]2 | [B,F]6 z2 | %28
 [B,D_A]2 [B,FA]>[B,EA] [B,DA]2 [B,EA][B,FA] | %29
[M:9/8][K:bass] [E,E]3- [E,E] [E,C]2- [E,C][C,C][E,C] | %30
[M:4/4] [F,D]2 [F,B,F][F,B,D] [F,B,F]2 [F,A,E]2 | [B,,B,]6 z2 |] %32
V:3
 x8 | x8 | x8 | x8 | x8 | x8 | x8 | x8 | x8 | z2 F,2 [DB]2 [DF]>[DF] | x8 | x8 | x8 | x8 | x8 | %15
 c6 z2 | x8 | x8 | x8 | x8 | x8 | x8 | x8 | x8 | x8 | x8 | x8 | x8 | x8 |[M:9/8] x9 |[M:4/4] x8 | %31
 x8 |] %32

